X:14
T:Gravedigger's song
N:The rarest of all modes.
C:John Kirkpatrick
Q:200
M:6/4
K:B Loc
B2 c d2 e f2 d b2 c' | b2 a f2 e d2 c  d/ B/-B2 :|
b2 c'  d'2 c'  b2 a f3 | b2 c' b2 a  f2 e d3 | b2 c' d'2 c' b2 a f3 |
B2 c d2 e fed eb2- | b2 c' b2 a f2 e d2 c | B12 ||

